resources/icons/test-ts.svg

<?xml version="1.0" encoding="UTF-8"?>
<svg xmlns="http://www.w3.org/2000/svg" xmlns:xlink="http://www.w3.org/1999/xlink" width="16" height="16" viewBox="0 0 16 16" version="1.1">
<g id="surface1">
<path style=" stroke:none;fill-rule:nonzero;fill:rgb(0.784314%,53.333333%,81.960784%);fill-opacity:1;" d="M 3.332031 12.667969 C 3.332031 13.035156 3.632812 13.332031 4 13.332031 L 12 13.332031 C 12.367188 13.332031 12.667969 13.035156 12.667969 12.667969 C 12.667969 12.527344 12.621094 12.394531 12.546875 12.285156 L 8.667969 5.566406 L 8.667969 2.667969 L 7.332031 2.667969 L 7.332031 5.566406 L 3.453125 12.285156 C 3.378906 12.394531 3.332031 12.527344 3.332031 12.667969 M 4 14.667969 C 2.894531 14.667969 2 13.769531 2 12.667969 C 2 12.265625 2.121094 11.894531 2.332031 11.578125 L 6 5.207031 L 6 4 C 5.632812 4 5.332031 3.703125 5.332031 3.332031 L 5.332031 2.667969 C 5.332031 1.929688 5.929688 1.332031 6.667969 1.332031 L 9.332031 1.332031 C 10.070312 1.332031 10.667969 1.929688 10.667969 2.667969 L 10.667969 3.332031 C 10.667969 3.703125 10.367188 4 10 4 L 10 5.207031 L 13.667969 11.578125 C 13.878906 11.894531 14 12.265625 14 12.667969 C 14 13.769531 13.105469 14.667969 12 14.667969 L 4 14.667969 M 8.667969 10.667969 L 9.558594 9.773438 L 10.847656 12 L 5.152344 12 L 6.925781 8.925781 L 8.667969 10.667969 M 8.332031 8 C 8.515625 8 8.667969 8.148438 8.667969 8.332031 C 8.667969 8.515625 8.515625 8.667969 8.332031 8.667969 C 8.148438 8.667969 8 8.515625 8 8.332031 C 8 8.148438 8.148438 8 8.332031 8 Z M 8.332031 8 "/>
</g>
</svg>

<svg xmlns="http://www.w3.org/2000/svg" width="16" height="16" viewBox="0 0 16 16"><path d="M3.332 12.668c0 .367.3.664.668.664h8a.667.667 0 00.547-1.047L8.668 5.566V2.668H7.332v2.898l-3.879 6.72a.685.685 0 00-.121.382m.668 2c-1.105 0-2-.898-2-2 0-.402.121-.773.332-1.09L6 5.207V4a.668.668 0 01-.668-.668v-.664c0-.738.598-1.336 1.336-1.336h2.664c.738 0 1.336.598 1.336 1.336v.664c0 .371-.3.668-.668.668v1.207l3.668 6.371c.21.317.332.688.332 1.09 0 1.102-.895 2-2 2H4m4.668-4l.89-.895L10.849 12H5.152l1.774-3.074 1.742 1.742M8.332 8c.184 0 .336.148.336.332a.338.338 0 01-.336.336A.335.335 0 018 8.332C8 8.148 8.148 8 8.332 8zm0 0" fill="#0288d1"/></svg>
